assets/icones/visualizacao.svg

<svg width="1000" height="1000" viewBox="0 0 1000 1000" fill="none" xmlns="http://www.w3.org/2000/svg">
<path d="M978.589 470.62C898.359 396.83 710.559 209.49 499.999 209.49C289.439 209.49 101.629 396.83 21.4092 470.62C3.37922 487.24 3.37922 512.77 21.4092 529.39C101.639 603.18 289.439 790.52 499.999 790.52C710.559 790.52 898.369 603.18 978.589 529.39C996.619 512.77 996.619 487.24 978.589 470.62ZM639.839 520.28C633.309 522.91 621.879 525.56 609.239 527.96C573.099 534.82 545.489 564.11 540.249 600.53C536.929 623.6 532.749 647.22 528.139 660.26C520.239 682.39 483.869 682.77 475.419 660.81C470.379 647.32 465.159 623.29 460.879 600.51C454.519 566.7 428.599 540.02 395.039 532.46C380.939 529.28 367.799 526.01 360.589 523.4C339.119 515.28 338.849 488.62 360.139 480.16C366.759 477.52 378.629 474.66 391.689 471.97C427.259 464.69 454.479 435.95 459.759 400.02C463.179 376.83 467.539 352.88 472.369 339.61C480.109 317.68 516.489 317.3 524.819 339.08C529.979 352.54 535.059 376.64 539.179 399.67C545.359 434.29 571.979 461.69 606.409 468.84C619.909 471.63 632.369 474.62 639.389 477.28C660.859 485.17 661.129 511.96 639.839 520.29V520.28Z" fill="#D9D9D9"/>
</svg>

<?xml version="1.0" encoding="UTF-8"?><svg id="_ícones" xmlns="http://www.w3.org/2000/svg" viewBox="0 0 1000 1000"><defs><style>.cls-1{fill:#010101;}</style></defs><path class="cls-1" d="m978.59,470.62c-80.23-73.79-268.03-261.13-478.59-261.13S101.63,396.83,21.41,470.62c-18.03,16.62-18.03,42.15,0,58.77,80.23,73.79,268.03,261.13,478.59,261.13s398.37-187.34,478.59-261.13c18.03-16.62,18.03-42.15,0-58.77Zm-338.75,49.66c-6.53,2.63-17.96,5.28-30.6,7.68-36.14,6.86-63.75,36.15-68.99,72.57-3.32,23.07-7.5,46.69-12.11,59.73-7.9,22.13-44.27,22.51-52.72.55-5.04-13.49-10.26-37.52-14.54-60.3-6.36-33.81-32.28-60.49-65.84-68.05-14.1-3.18-27.24-6.45-34.45-9.06-21.47-8.12-21.74-34.78-.45-43.24,6.62-2.64,18.49-5.5,31.55-8.19,35.57-7.28,62.79-36.02,68.07-71.95,3.42-23.19,7.78-47.14,12.61-60.41,7.74-21.93,44.12-22.31,52.45-.53,5.16,13.46,10.24,37.56,14.36,60.59,6.18,34.62,32.8,62.02,67.23,69.17,13.5,2.79,25.96,5.78,32.98,8.44,21.47,7.89,21.74,34.68.45,43.01Z"/></svg>
